X: 18655
T: I'll Buy Boots For Maggie
R: polka
M: 2/4
K: Aminor
|:A>B cd|eg ga|eg/e/ dB|BA AG|
A>B cd|eg ga|eg/e/ dB|1 BA AG:|2 BA A2||
|:e>a ab|c'b a2|f>a ab|c'b a2|
^f>a ab|c'b a2|eg/e/ dB|1 BA A2:|2 BA AG||

